public/projects/nscp.svg

<?xml version="1.0" encoding="UTF-8" standalone="no"?>
<svg
   version="1.1"
   width="512"
   height="512"
   style="clip-rule:evenodd;fill-rule:evenodd;image-rendering:optimizeQuality;shape-rendering:geometricPrecision;text-rendering:geometricPrecision"
   id="svg3"
   sodipodi:docname="nscp.svg"
   inkscape:export-filename="nscp.svg"
   inkscape:export-xdpi="96"
   inkscape:export-ydpi="96"
   inkscape:version="1.4 (e7c3feb100, 2024-10-09)"
   xmlns:inkscape="http://www.inkscape.org/namespaces/inkscape"
   xmlns:sodipodi="http://sodipodi.sourceforge.net/DTD/sodipodi-0.dtd"
   xmlns="http://www.w3.org/2000/svg"
   xmlns:svg="http://www.w3.org/2000/svg">
  <defs
     id="defs3" />
  <sodipodi:namedview
     id="namedview3"
     pagecolor="#505050"
     bordercolor="#ffffff"
     borderopacity="1"
     inkscape:showpageshadow="0"
     inkscape:pageopacity="0"
     inkscape:pagecheckerboard="1"
     inkscape:deskcolor="#505050"
     inkscape:zoom="1.5644531"
     inkscape:cx="256"
     inkscape:cy="256"
     inkscape:window-width="1920"
     inkscape:window-height="1003"
     inkscape:window-x="1080"
     inkscape:window-y="0"
     inkscape:window-maximized="1"
     inkscape:current-layer="svg3">
    <inkscape:page
       x="0"
       y="0"
       width="512"
       height="512"
       id="page2"
       margin="0"
       bleed="0" />
  </sodipodi:namedview>
  <g
     id="g1"
     style="fill:#ffffff"
     transform="matrix(0.89013733,0,0,0.89178881,28.069913,27.647959)">
    <path
       style="opacity:0.984;fill:#ffffff"
       fill="#000000"
       d="m -0.5,176.5 c 0,-14.667 0,-29.333 0,-44 2.14111,-2.972 4.80777,-5.472 8,-7.5 8.0366,-1.338 16.0366,-2.838 24,-4.5 2.8373,-9.341 6.5039,-18.341 11,-27 C 37.4731,86.9732 32.6398,80.3066 28,73.5 26.8274,68.0232 27.8274,63.0232 31,58.5 39.1667,50.3333 47.3333,42.1667 55.5,34 c 4.7681,-3.1186 9.7681,-3.7853 15,-2 6.4243,3.9229 12.4243,8.4229 18,13.5 9.4367,-5.5527 19.437,-9.7194 30,-12.5 1.131,-8.1986 2.631,-16.3652 4.5,-24.5 2.488,-3.82513 5.988,-5.99179 10.5,-6.5 12.333,-0.66667 24.667,-0.66667 37,0 6.053,1.05292 9.887,4.55292 11.5,10.5 1.073,6.6538 2.073,13.3204 3,20 9.892,3.4098 19.559,7.4098 29,12 6.156,-4.1516 12.323,-8.3183 18.5,-12.5 4.455,-1.8588 8.789,-1.5255 13,1 9.167,9.1667 18.333,18.3333 27.5,27.5 2.867,5.7383 2.533,11.4049 -1,17 -3.833,5 -7.667,10 -11.5,15 5.244,8.737 8.911,18.07 11,28 8.457,0.265 16.79,1.432 25,3.5 3.369,2.365 5.536,5.532 6.5,9.5 0.667,13 0.667,26 0,39 -1.433,5.098 -4.6,8.598 -9.5,10.5 -7.336,1.167 -14.669,2.334 -22,3.5 -2.783,9.729 -6.783,18.895 -12,27.5 5.219,6.218 10.052,12.718 14.5,19.5 1.794,4.026 1.794,8.026 0,12 -8.469,9.47 -17.303,18.637 -26.5,27.5 -4.523,3.173 -9.523,4.173 -15,3 -6.844,-4.848 -13.677,-9.681 -20.5,-14.5 -8.947,5.148 -18.447,8.815 -28.5,11 -0.668,7.344 -1.501,14.678 -2.5,22 -1.298,4.774 -4.132,8.274 -8.5,10.5 -14.667,0.667 -29.333,0.667 -44,0 -4.766,-2.429 -7.6,-6.263 -8.5,-11.5 -0.999,-7.322 -1.832,-14.656 -2.5,-22 -9.526,-2.289 -18.5261,-5.955 -27,-11 -6.644,5.655 -13.644,10.821 -21,15.5 -6.0347,1.405 -11.368,0.072 -16,-4 -7.1667,-7.167 -14.3333,-14.333 -21.5,-21.5 -5.0637,-6.239 -5.7303,-12.905 -2,-20 4.3097,-5.811 8.8097,-11.477 13.5,-17 -4.3778,-7.967 -7.8778,-16.301 -10.5,-25 -8.425,-1.701 -16.925,-3.201 -25.5,-4.5 -3.19223,-2.028 -5.85889,-4.528 -8,-7.5 z m 150,-78 c 24.788,0.8062 42.288,12.473 52.5,35 8.88,32.067 -1.62,55.233 -31.5,69.5 -25.31,7.562 -46.143,1.062 -62.5,-19.5 -10.6356,-16.786 -12.3022,-34.453 -5,-53 9.946,-18.785 25.446,-29.452 46.5,-32 z"
       id="path1" />
  </g>
  <g
     id="g2"
     style="fill:#ffffff"
     transform="matrix(0.89013733,0,0,0.89178881,28.069913,27.647959)">
    <path
       style="opacity:0.98;fill:#ffffff"
       fill="#000000"
       d="m 511.5,271.5 c 0,6 0,12 0,18 -2.141,2.972 -4.808,5.472 -8,7.5 -5.6,1.251 -11.1,2.751 -16.5,4.5 -1.423,8.029 -3.923,15.696 -7.5,23 3.318,3.818 6.818,7.485 10.5,11 3.954,5.524 4.288,11.19 1,17 -5.793,7.461 -11.959,14.628 -18.5,21.5 -4.494,2.833 -9.161,3.166 -14,1 -4.843,-2.849 -9.677,-5.683 -14.5,-8.5 -6.75,4.256 -13.916,7.756 -21.5,10.5 -0.657,6.48 -1.49,12.98 -2.5,19.5 -1.5,4.167 -4.333,7 -8.5,8.5 -10.581,1.993 -21.248,2.659 -32,2 -3.062,-1.061 -5.562,-2.894 -7.5,-5.5 -1.944,-5.884 -3.444,-11.884 -4.5,-18 -0.318,-1.147 -0.984,-1.981 -2,-2.5 -6.88,-1.552 -13.547,-3.719 -20,-6.5 -5.164,4.325 -10.498,8.492 -16,12.5 -5.232,1.785 -10.232,1.119 -15,-2 -5.542,-5.211 -11.375,-10.044 -17.5,-14.5 -4.072,-4.594 -5.406,-9.928 -4,-16 2.915,-5.498 6.081,-10.832 9.5,-16 -3.588,-6.175 -6.922,-12.509 -10,-19 -6.295,-1.096 -12.628,-1.93 -19,-2.5 -7.913,-3.018 -11.413,-8.851 -10.5,-17.5 -0.445,-5.672 -0.945,-11.338 -1.5,-17 -0.22,-5.513 1.78,-10.013 6,-13.5 6.466,-2.074 12.966,-3.907 19.5,-5.5 1.46,-7.547 3.627,-14.881 6.5,-22 -3.992,-4.832 -7.825,-9.832 -11.5,-15 -2,-4.333 -2,-8.667 0,-13 5.333,-6.667 10.667,-13.333 16,-20 5.153,-4.721 10.986,-5.887 17.5,-3.5 4.253,2.71 8.42,5.543 12.5,8.5 7.31,-5.073 15.143,-9.239 23.5,-12.5 0.657,-6.48 1.49,-12.98 2.5,-19.5 1.765,-2.973 4.265,-5.14 7.5,-6.5 10.913,-2.034 21.913,-2.701 33,-2 3.437,1.105 5.937,3.272 7.5,6.5 1.873,5.53 3.039,11.197 3.5,17 8.93,1.356 17.43,4.023 25.5,8 4.748,-6.764 11.081,-11.097 19,-13 6.12,1.142 11.286,3.976 15.5,8.5 4.785,3.818 9.285,7.985 13.5,12.5 2.156,3.762 2.823,7.762 2,12 -2.79,5.417 -5.957,10.584 -9.5,15.5 4.572,6.308 8.238,13.141 11,20.5 5.95,1.161 11.95,1.995 18,2.5 5.338,2.007 8.504,5.841 9.5,11.5 0.176,4.188 0.676,8.188 1.5,12 z m -129,-34 c 29.13,0.467 45.13,15.133 48,44 -2.182,26.683 -16.682,41.35 -43.5,44 -31.806,-4.799 -45.806,-23.133 -42,-55 6.183,-18.359 18.683,-29.359 37.5,-33 z"
       id="path2" />
  </g>
  <g
     id="g3"
     style="fill:#ffffff"
     transform="matrix(0.89013733,0,0,0.89178881,28.069913,27.647959)">
    <path
       style="opacity:0.976;fill:#ffffff"
       fill="#000000"
       d="m 194.5,305.5 c 6.687,0.169 13.354,0.669 20,1.5 4.562,1.627 7.395,4.794 8.5,9.5 0.548,3.67 1.048,7.337 1.5,11 6.924,1.587 13.424,4.254 19.5,8 5.897,-6.634 13.064,-8.801 21.5,-6.5 6.542,4.875 12.042,10.708 16.5,17.5 1.471,8.397 -1.029,15.397 -7.5,21 3.328,5.984 5.661,12.317 7,19 15.64,-1.194 22.64,5.973 21,21.5 1.329,15.838 -6.004,23.338 -22,22.5 -1.55,6.319 -3.883,12.319 -7,18 2.694,4.201 5.194,8.534 7.5,13 1.027,4.816 0.027,9.15 -3,13 -4.575,5.246 -9.742,9.746 -15.5,13.5 -3.333,0.667 -6.667,0.667 -10,0 -4.207,-2.265 -8.207,-4.765 -12,-7.5 -5.738,2.858 -11.738,5.024 -18,6.5 -1.217,4.79 -2.384,9.624 -3.5,14.5 -1.5,2.833 -3.667,5 -6.5,6.5 -8.667,2 -17.333,2 -26,0 -2.46,-1.458 -4.627,-3.291 -6.5,-5.5 -1.332,-5.501 -2.499,-11.001 -3.5,-16.5 -5.813,-1.823 -11.313,-4.323 -16.5,-7.5 -4.08,2.957 -8.247,5.79 -12.5,8.5 -4.572,0.887 -8.905,0.22 -13,-2 -4.167,-4.167 -8.333,-8.333 -12.5,-12.5 -4.28,-5.845 -4.28,-11.845 0,-18 2.167,-2.833 4.333,-5.667 6.5,-8.5 -3.01,-4.855 -5.344,-10.021 -7,-15.5 -4.552,-1.49 -9.219,-2.656 -14,-3.5 -7.411,-4.391 -10.0777,-10.891 -8,-19.5 -1.8316,-15.67 5.168,-23.17 21,-22.5 2.109,-5.651 4.609,-11.151 7.5,-16.5 0.667,-1 0.667,-2 0,-3 -3.082,-3.159 -5.416,-6.825 -7,-11 -0.738,-3.761 -0.405,-7.428 1,-11 4.948,-6.953 11.115,-12.453 18.5,-16.5 3,-0.667 6,-0.667 9,0 3.804,2.305 7.47,4.805 11,7.5 6.008,-3.447 12.341,-6.113 19,-8 1.036,-5.143 2.536,-10.143 4.5,-15 2.975,-3.189 6.475,-5.189 10.5,-6 z m 0,66 c 29,-0.168 42.834,14.165 41.5,43 -4.059,15.393 -13.892,24.56 -29.5,27.5 -24.064,0.607 -37.731,-11.059 -41,-35 1.873,-18.359 11.539,-30.192 29,-35.5 z"
       id="path3" />
  </g>
</svg>

<?xml version="1.0" encoding="UTF-8"?>
<!DOCTYPE svg PUBLIC "-//W3C//DTD SVG 1.1//EN" "http://www.w3.org/Graphics/SVG/1.1/DTD/svg11.dtd">
<svg xmlns="http://www.w3.org/2000/svg" version="1.1" width="512px" height="512px" style="shape-rendering:geometricPrecision; text-rendering:geometricPrecision; image-rendering:optimizeQuality; fill-rule:evenodd; clip-rule:evenodd" xmlns:xlink="http://www.w3.org/1999/xlink">
<g><path style="opacity:0.984" fill="#000000" d="M -0.5,176.5 C -0.5,161.833 -0.5,147.167 -0.5,132.5C 1.64111,129.528 4.30777,127.028 7.5,125C 15.5366,123.662 23.5366,122.162 31.5,120.5C 34.3373,111.159 38.0039,102.159 42.5,93.5C 37.4731,86.9732 32.6398,80.3066 28,73.5C 26.8274,68.0232 27.8274,63.0232 31,58.5C 39.1667,50.3333 47.3333,42.1667 55.5,34C 60.2681,30.8814 65.2681,30.2147 70.5,32C 76.9243,35.9229 82.9243,40.4229 88.5,45.5C 97.9367,39.9473 107.937,35.7806 118.5,33C 119.631,24.8014 121.131,16.6348 123,8.5C 125.488,4.67487 128.988,2.50821 133.5,2C 145.833,1.33333 158.167,1.33333 170.5,2C 176.553,3.05292 180.387,6.55292 182,12.5C 183.073,19.1538 184.073,25.8204 185,32.5C 194.892,35.9098 204.559,39.9098 214,44.5C 220.156,40.3484 226.323,36.1817 232.5,32C 236.955,30.1412 241.289,30.4745 245.5,33C 254.667,42.1667 263.833,51.3333 273,60.5C 275.867,66.2383 275.533,71.9049 272,77.5C 268.167,82.5 264.333,87.5 260.5,92.5C 265.744,101.237 269.411,110.57 271.5,120.5C 279.957,120.765 288.29,121.932 296.5,124C 299.869,126.365 302.036,129.532 303,133.5C 303.667,146.5 303.667,159.5 303,172.5C 301.567,177.598 298.4,181.098 293.5,183C 286.164,184.167 278.831,185.334 271.5,186.5C 268.717,196.229 264.717,205.395 259.5,214C 264.719,220.218 269.552,226.718 274,233.5C 275.794,237.526 275.794,241.526 274,245.5C 265.531,254.97 256.697,264.137 247.5,273C 242.977,276.173 237.977,277.173 232.5,276C 225.656,271.152 218.823,266.319 212,261.5C 203.053,266.648 193.553,270.315 183.5,272.5C 182.832,279.844 181.999,287.178 181,294.5C 179.702,299.274 176.868,302.774 172.5,305C 157.833,305.667 143.167,305.667 128.5,305C 123.734,302.571 120.9,298.737 120,293.5C 119.001,286.178 118.168,278.844 117.5,271.5C 107.974,269.211 98.9739,265.545 90.5,260.5C 83.856,266.155 76.856,271.321 69.5,276C 63.4653,277.405 58.132,276.072 53.5,272C 46.3333,264.833 39.1667,257.667 32,250.5C 26.9363,244.261 26.2697,237.595 30,230.5C 34.3097,224.689 38.8097,219.023 43.5,213.5C 39.1222,205.533 35.6222,197.199 33,188.5C 24.575,186.799 16.075,185.299 7.5,184C 4.30777,181.972 1.64111,179.472 -0.5,176.5 Z M 149.5,98.5 C 174.288,99.3062 191.788,110.973 202,133.5C 210.88,165.567 200.38,188.733 170.5,203C 145.19,210.562 124.357,204.062 108,183.5C 97.3644,166.714 95.6978,149.047 103,130.5C 112.946,111.715 128.446,101.048 149.5,98.5 Z"/></g>
<g><path style="opacity:0.98" fill="#000000" d="M 511.5,271.5 C 511.5,277.5 511.5,283.5 511.5,289.5C 509.359,292.472 506.692,294.972 503.5,297C 497.9,298.251 492.4,299.751 487,301.5C 485.577,309.529 483.077,317.196 479.5,324.5C 482.818,328.318 486.318,331.985 490,335.5C 493.954,341.024 494.288,346.69 491,352.5C 485.207,359.961 479.041,367.128 472.5,374C 468.006,376.833 463.339,377.166 458.5,375C 453.657,372.151 448.823,369.317 444,366.5C 437.25,370.756 430.084,374.256 422.5,377C 421.843,383.48 421.01,389.98 420,396.5C 418.5,400.667 415.667,403.5 411.5,405C 400.919,406.993 390.252,407.659 379.5,407C 376.438,405.939 373.938,404.106 372,401.5C 370.056,395.616 368.556,389.616 367.5,383.5C 367.182,382.353 366.516,381.519 365.5,381C 358.62,379.448 351.953,377.281 345.5,374.5C 340.336,378.825 335.002,382.992 329.5,387C 324.268,388.785 319.268,388.119 314.5,385C 308.958,379.789 303.125,374.956 297,370.5C 292.928,365.906 291.594,360.572 293,354.5C 295.915,349.002 299.081,343.668 302.5,338.5C 298.912,332.325 295.578,325.991 292.5,319.5C 286.205,318.404 279.872,317.57 273.5,317C 265.587,313.982 262.087,308.149 263,299.5C 262.555,293.828 262.055,288.162 261.5,282.5C 261.28,276.987 263.28,272.487 267.5,269C 273.966,266.926 280.466,265.093 287,263.5C 288.46,255.953 290.627,248.619 293.5,241.5C 289.508,236.668 285.675,231.668 282,226.5C 280,222.167 280,217.833 282,213.5C 287.333,206.833 292.667,200.167 298,193.5C 303.153,188.779 308.986,187.613 315.5,190C 319.753,192.71 323.92,195.543 328,198.5C 335.31,193.427 343.143,189.261 351.5,186C 352.157,179.52 352.99,173.02 354,166.5C 355.765,163.527 358.265,161.36 361.5,160C 372.413,157.966 383.413,157.299 394.5,158C 397.937,159.105 400.437,161.272 402,164.5C 403.873,170.03 405.039,175.697 405.5,181.5C 414.43,182.856 422.93,185.523 431,189.5C 435.748,182.736 442.081,178.403 450,176.5C 456.12,177.642 461.286,180.476 465.5,185C 470.285,188.818 474.785,192.985 479,197.5C 481.156,201.262 481.823,205.262 481,209.5C 478.21,214.917 475.043,220.084 471.5,225C 476.072,231.308 479.738,238.141 482.5,245.5C 488.45,246.661 494.45,247.495 500.5,248C 505.838,250.007 509.004,253.841 510,259.5C 510.176,263.688 510.676,267.688 511.5,271.5 Z M 382.5,237.5 C 411.63,237.967 427.63,252.633 430.5,281.5C 428.318,308.183 413.818,322.85 387,325.5C 355.194,320.701 341.194,302.367 345,270.5C 351.183,252.141 363.683,241.141 382.5,237.5 Z"/></g>
<g><path style="opacity:0.976" fill="#000000" d="M 194.5,305.5 C 201.187,305.669 207.854,306.169 214.5,307C 219.062,308.627 221.895,311.794 223,316.5C 223.548,320.17 224.048,323.837 224.5,327.5C 231.424,329.087 237.924,331.754 244,335.5C 249.897,328.866 257.064,326.699 265.5,329C 272.042,333.875 277.542,339.708 282,346.5C 283.471,354.897 280.971,361.897 274.5,367.5C 277.828,373.484 280.161,379.817 281.5,386.5C 297.14,385.306 304.14,392.473 302.5,408C 303.829,423.838 296.496,431.338 280.5,430.5C 278.95,436.819 276.617,442.819 273.5,448.5C 276.194,452.701 278.694,457.034 281,461.5C 282.027,466.316 281.027,470.65 278,474.5C 273.425,479.746 268.258,484.246 262.5,488C 259.167,488.667 255.833,488.667 252.5,488C 248.293,485.735 244.293,483.235 240.5,480.5C 234.762,483.358 228.762,485.524 222.5,487C 221.283,491.79 220.116,496.624 219,501.5C 217.5,504.333 215.333,506.5 212.5,508C 203.833,510 195.167,510 186.5,508C 184.04,506.542 181.873,504.709 180,502.5C 178.668,496.999 177.501,491.499 176.5,486C 170.687,484.177 165.187,481.677 160,478.5C 155.92,481.457 151.753,484.29 147.5,487C 142.928,487.887 138.595,487.22 134.5,485C 130.333,480.833 126.167,476.667 122,472.5C 117.72,466.655 117.72,460.655 122,454.5C 124.167,451.667 126.333,448.833 128.5,446C 125.49,441.145 123.156,435.979 121.5,430.5C 116.948,429.01 112.281,427.844 107.5,427C 100.089,422.609 97.4223,416.109 99.5,407.5C 97.6684,391.83 104.668,384.33 120.5,385C 122.609,379.349 125.109,373.849 128,368.5C 128.667,367.5 128.667,366.5 128,365.5C 124.918,362.341 122.584,358.675 121,354.5C 120.262,350.739 120.595,347.072 122,343.5C 126.948,336.547 133.115,331.047 140.5,327C 143.5,326.333 146.5,326.333 149.5,327C 153.304,329.305 156.97,331.805 160.5,334.5C 166.508,331.053 172.841,328.387 179.5,326.5C 180.536,321.357 182.036,316.357 184,311.5C 186.975,308.311 190.475,306.311 194.5,305.5 Z M 194.5,371.5 C 223.5,371.332 237.334,385.665 236,414.5C 231.941,429.893 222.108,439.06 206.5,442C 182.436,442.607 168.769,430.941 165.5,407C 167.373,388.641 177.039,376.808 194.5,371.5 Z"/></g>
</svg>
